X: 41536
T: Under The Bridge
R: jig
M: 6/8
K: Aminor
|:Ace a2a|gfe e2e|fed edc|dcB Bcd|
Ace a2a|gfe e2e|fed edc|dcB A3:|
|:fed def|edc cde|dcB dcB|ecA Ace|fed def|
edc cde|1 dcB dcB|A3 A2e:|2 dcB cBA|^G3E3||

